assets/travel-color/TravelColor2.svg

<svg xmlns="http://www.w3.org/2000/svg" data-name="Layer 1" viewBox="0 0 128 128"><path fill="#0053fb" d="M64.027 108.125a4.41 4.41 0 01-4.407-4.247l-1.985-53.587-.858-23.166a7.25 7.25 0 017.25-7.25 7.25 7.25 0 017.25 7.25l-2.843 76.753a4.41 4.41 0 01-4.407 4.247z"/><path fill="#021768" d="M18.944 78.958l38.691-28.667.887 23.934-39.578 10.4v-5.667zM109.132 78.958L70.441 50.291l-.887 23.934 39.578 10.4v-5.667zM81.628 103.828L68.837 94.35l-.293 7.913 13.084 3.438v-1.873zM46.361 103.828l12.791-9.478.293 7.913-13.084 3.438v-1.873zM60.471 27a1.25 1.25 0 01-1-2 6.267 6.267 0 014.256-2.362 6.043 6.043 0 014.744 2.262 1.25 1.25 0 01-1.83 1.7 3.692 3.692 0 00-2.782-1.469 3.8 3.8 0 00-2.388 1.369 1.249 1.249 0 01-1 .5z"/></svg>

<svg xmlns="http://www.w3.org/2000/svg" data-name="Layer 1" viewBox="0 0 128 128"><path fill="#0053fb" d="M64.027 108.125a4.41 4.41 0 0 1-4.407-4.247l-1.985-53.587-.858-23.166a7.25 7.25 0 0 1 7.25-7.25 7.25 7.25 0 0 1 7.25 7.25l-2.843 76.753a4.41 4.41 0 0 1-4.407 4.247z"/><path fill="#021768" d="M18.944 78.958 57.635 50.291 58.522 74.225 18.944 84.625 18.944 78.958z"/><path fill="#021768" d="M109.132 78.958 70.441 50.291 69.554 74.225 109.132 84.625 109.132 78.958z"/><path fill="#021768" d="M81.628 103.828 68.837 94.35 68.544 102.263 81.628 105.701 81.628 103.828z"/><path fill="#021768" d="M46.361 103.828 59.152 94.35 59.445 102.263 46.361 105.701 46.361 103.828z"/><path fill="#021768" d="M60.471 27a1.25 1.25 0 0 1-1-2 6.267 6.267 0 0 1 4.256-2.362 6.043 6.043 0 0 1 4.744 2.262 1.25 1.25 0 0 1-1.83 1.7 3.692 3.692 0 0 0-2.782-1.469 3.8 3.8 0 0 0-2.388 1.369 1.249 1.249 0 0 1-1 .5z"/></svg>
